X:10469
T:Mathews Hornpipe. WM.122
M:C
L:1/8
Q:180
S:Wm.Mittell's MS,New Romney,Kent,1799
R:Hornpipe
O:England
A:Kent
N:See D.Roberts' book for full version..I have included it again for it's
N:wing marks.
D:
H:
Z:vmp.Chris Partington
W:
K:D
d2f2ecA2|B2gBA4|G2eGF2dF|Ecdf ecA2|!
d2f2ecA2|B2gBA4|G2eGF2dF|E2c2d4:|!
|:dfed gedc|BdcBA2F2|BdcB egfe|d2c2B4|!
(df a2)(geB2)|bagf g(ede)|(ceg2)(fdA2)|agfe f(dcd)|!
|d2f2ecA2|B2gBA4|G2eGF2cF|Ecdf ecA2|!
d2f2ecA2|B2gBA4|G2eGF2dF|E2c2d4:|]
